!! 00000] TT[WS
!!!OTL: Yinian mang
!!!ARE: Asia, China,ÿShanxi Zuoquan
!! Ethnic Group: Han
!! WI, 183 (2)
!!!SCT: J0217
!!!YEM: Copyright 1995, estate of Helmut Schaffrath.
**kern
*ICvox
*Ivox
*M2/4
*k[f#]
*G:
{8dd
16ee
16gg
8dd
8ee
=1
8ee
16dd
16b
4a
=2
8dd
16ee
16gg
8dd
8ee
=3
16ee
16dd
16cc
16b
4a}
=4
{16a
16b
8dd
16b
16dd
16b
16a
=5
16b
16dd
16b
16a
4g
=6
16a
16g
16a
16b
16d
16e
8g
=7
16e
16d
16B
16A
4d}
=8
{16g
16g
16d
16e
16g
16e
8g
=9
16a
16g
16a
16b
16d
16e
8g
=10
16e
16d
16B
16A
4d}
==
!!!AGN: Xiaodiao. Qingge
!!!ONB: ESAC (Essen Associative Code) Database: CHINA
!!!AMT: simple duple
!!!AIN: vox
!!!EED: Helmut Schaffrath
!!!EEV: 1.0
*-
